X: 1
T: Karen Tweeds
M: 4/4
L: 1/8
R: reel
K: Amaj
B/c/d|:e2^de =dece|e/e/e ^de =dece|fBBA Bcd=g|fBBA AB2c|
defd cdec|dcBA c2 AF|EAAB BcAF|1EAGB A2 B/c/d:|2EAGB AFEC||
|:A,3 B BcAF|EAGB AcBA|FBBc dcBA|FBBA B2 BA|
c2 ec fcec|dcBA BcAF|EAAB BcAF|1EAGB AFEC:|2EAGB ABcd||
